X:2
T:Scintillante (transposed from Bb to C)
C:G. Mantellini
N:monophonic version, transposed to C
Z:transcribed by Moshe Braner, Jan. 2001
R:waltz
M:3/4
L:1/8
P:ABAC ()
K:C
P:A
|: CEGc |\
(3BcB A2 G2 | A2 B3 G | "C"E6-|E2 CEGc |\
(3BcB A2 G2 | A2 B3 G | "G7"F6-|F2 D^CDE |
(3FGF E2 D2 | F2 G3 A | B6-|B2 fedc |\
Bc dc BA | GA BA GF | "C"E6-|E2 CEGc |
(3BcB A2 G2 | A2 B3 G | "C"E6-|E2 CDEF |\
(3"A7"GAG F2 E2 | E2 F3 G | "Dm"A6-|A2 D^CDE |
FE DE FG | A^G AB cd | "C"ed cB A_A | G2 CEGc |\
(3"G7"BcB A2 G2 | A2 B3 G | "C"c6-|cz :|
P:B
K:G
|: B2 c2 |\
"G"d2 z2 B2 | d2 z2 B2 | "D7"c2 cd cB | Az c2 d2 |\
e2 z2 c2 | f2 z2 e2 | "G"d2 de dc | Bz B2 c2 |
d2 z2 B2 | "G7"d2 z2 =f2 | "C"e2 ed cd | ez f2 e2 |\
"G"d2 B2 d2 | "D7"c2 E2 F2 | "G"G6-|"D.C."Gz :|
K:C
P:C  TRIO
K:F
|: cdcB |\
"F"A6 | c6 | F6 | A6 |\
C2 D2 E2 | "Abdim"F2 D3 F | "C7"E6-|E2 eeee |
e2 z2 d2 | f2 z2 e2 | B6-|B2 eeee |\
e2 z2 d2 | f2 z2 e2 | "F"A6-|A2 cdcB |
"F"A6 | c6 | F6 | A6 |\
"D7"D2 ^F2 A2 | c2 B2 zA | "Gm"d6-|d2 gggg |
g2 z2 d2 | g2 z2 d2 | "F"f6-|fABcBA |\
"Gm"d2 B2 d2 | (3"C7"efe d2 c2 | "F"f6-|fz :|
